!!!OTL-incipit: ES FLOGEN DREI SCHWAELBELEIN UEBER DEN RHEIN
!!!ARE: Europa, Mitteleuropa, Deutschland, Herzogtum Berg
!!!SCT: Z0098
!!!TXL: @@DE
!!!YEM: Copyright 1995, estate of Helmut Schaffrath.
**kern	**text
*ICvox	*
*M2/4	*
*k[b-]	*
*F:	*
!LO:TX:a:t=Bergiſch.	!
{8fL	Es
8aJ	.
=1	=1
4cc	flo-
8g	-gen
8cc	drei
=2	=2
8ccL	Schwäl-
8b-J	.
8a	-be-
8g	-lein
=3	=3
4f	ü-
8a	-ber
8g	den
=4	=4
4.f}	Rhein,
{8a	es
=5	=5
8g	ſtar-
8g	-ben
8g	dem
8g	.
=6	=6
4d	Kö-
8a	-nig
8a	drei
=7	=7
8gL	Töch-
8fJ	.
8eL	-ter-
8fJ	.
=8	=8
4c	-lein,
8r}	.
{8c	es
=9	=9
8fL	ſtar-
8eJ	.
8f	-ben
8a	dem
=10	=10
2cc	Kö-
=11	=11
4.a	-nig
8f	drei
=12	=12
8aL	Töch-
8gJ	.
8fL	-ter-
8eJ	.
=13	=13
4f}	-lein.
==	==
!!!AGN: Sagen - Lied, Romanze, Tod
!!!ONB: ESAC (Essen Associative Code) Database: ZUCCAL
!!!AMT: simple duple
!!!AIN: vox
!!!EED: Helmut Schaffrath
!!!EEV: 1.0
!!!GTL: I. Ernste Romanzen und Sagen.
!!!URL-scan: https://www.digitale-sammlungen.de/de/view/bsb11160571?page=192
!!!ENC: Anna Maria Matuszewska
!!!EEV: 2025/01/27
*-	*-
